pldoc/static/images/icons/chevron-right.svg

<?xml version="1.0" encoding="utf-8"?>
<!-- Generated by IcoMoon.io -->
<!DOCTYPE svg PUBLIC "-//W3C//DTD SVG 1.1//EN" "http://www.w3.org/Graphics/SVG/1.1/DTD/svg11.dtd">
<svg version="1.1" xmlns="http://www.w3.org/2000/svg" xmlns:xlink="http://www.w3.org/1999/xlink" width="10" height="14" viewBox="0 0 10 14">
<path fill="#444444" d="M8.648 6.852l-5.797 5.797q-0.148 0.148-0.352 0.148t-0.352-0.148l-1.297-1.297q-0.148-0.148-0.148-0.352t0.148-0.352l4.148-4.148-4.148-4.148q-0.148-0.148-0.148-0.352t0.148-0.352l1.297-1.297q0.148-0.148 0.352-0.148t0.352 0.148l5.797 5.797q0.148 0.148 0.148 0.352t-0.148 0.352z"></path>
</svg>

<svg xmlns="http://www.w3.org/2000/svg" width="10" height="14" viewBox="0 0 10 14"><path fill="#444" d="M8.648 6.852L2.85 12.65q-.147.147-.35.147t-.353-.148L.85 11.35Q.702 11.204.702 11t.148-.352L4.998 6.5.85 2.352Q.702 2.204.702 2t.148-.352L2.147.35Q2.295.204 2.5.204t.35.148L8.65 6.15q.148.148.148.352t-.148.352z"/></svg>
